dist/img/sprites/premiumSupport.svg

<svg width="69" height="68" viewBox="0 0 69 68" fill="none" xmlns="http://www.w3.org/2000/svg">
<path d="M5.43078 67.8681C4.66517 67.4364 4.44595 66.777 4.51072 65.9234C5.09198 58.2142 8.55301 52.3284 15.5847 48.8724C17.7835 47.7912 20.2198 47.1801 22.5648 46.4078C23.2026 46.1986 23.6045 45.8897 23.8835 45.2702C24.4448 44.0263 25.0908 42.8189 25.6173 41.7677C24.7155 40.3676 23.8951 39.0673 23.0365 37.7935C22.9252 37.6274 22.6213 37.5527 22.3921 37.5095C21.6398 37.3683 20.8244 37.3965 20.1368 37.1126C18.6072 36.4831 17.8682 35.216 17.7752 33.5785C17.7453 33.0503 17.7702 32.5206 17.7702 31.9874C15.7939 31.1255 15.0466 29.5943 15.1014 27.5217C15.1828 24.3646 15.03 21.1942 15.2525 18.0487C15.6046 13.0947 17.7038 8.86968 21.3193 5.46512C25.7286 1.31157 31.0148 -0.487037 37.0367 0.112497C42.5272 0.658887 47.0328 3.16829 50.5021 7.45471C53.5363 11.203 54.9131 15.5459 54.8915 20.3522C54.8799 22.8267 54.8915 25.3012 54.8899 27.7758C54.8882 30.5592 53.264 32.1934 50.4971 32.1984C49.8578 32.1984 49.2184 32.1984 48.4777 32.1984C48.1007 35.7773 46.8318 38.961 44.2842 41.5617C45.01 43.0182 45.7059 44.4448 46.4416 45.8498C46.5429 46.0441 46.8352 46.1786 47.0677 46.2584C48.9676 46.9077 50.8841 47.5056 52.774 48.1782C58.3326 50.1562 61.973 54.0888 64.1502 59.4714C64.9839 61.534 65.3709 63.7013 65.4938 65.9234C65.5403 66.777 65.3344 67.4364 64.5688 67.8681H5.43078ZM46.8667 22.5494C46.503 22.4862 46.2257 22.4397 45.95 22.3899C44.8439 22.189 43.7229 22.0428 42.6318 21.7771C38.6925 20.8238 35.2248 18.9688 32.2105 16.2551C32.0212 16.0857 31.709 15.9345 31.4698 15.9561C29.7626 16.1073 28.223 16.7151 26.8297 17.7232C25.4197 18.7446 24.4963 20.1844 23.4832 21.5446C23.2939 21.7987 23.171 22.1906 23.1976 22.5029C23.4533 25.4059 23.7207 28.3072 24.0429 31.2036C24.1791 32.4209 24.4564 33.6216 24.6723 34.8489C25.8897 34.8489 26.9924 34.8357 28.0952 34.8572C28.4489 34.8639 28.6266 34.7626 28.7943 34.4288C29.5284 32.9806 30.7457 32.2482 32.3617 32.2033C33.2452 32.1784 34.1304 32.1751 35.0122 32.2033C37.2659 32.2781 38.9731 34.0086 38.9698 36.1875C38.9665 38.3598 37.2426 40.082 34.989 40.1451C34.1935 40.1683 33.398 40.1484 32.6025 40.1517C30.852 40.1584 29.5483 39.426 28.7445 37.8433C28.6748 37.7071 28.522 37.5228 28.4007 37.5178C27.6036 37.4895 26.8031 37.5028 25.9113 37.5028C27.1369 39.4991 28.6582 40.9821 30.6727 41.8739C36.9835 44.6707 43.5518 41.0652 45.2923 34.5732C45.8836 32.3694 46.0911 30.0576 46.3884 27.7841C46.6143 26.0602 46.7056 24.3197 46.8617 22.5444L46.8667 22.5494ZM23.3736 48.9156C21.8856 49.4138 20.3062 49.9768 18.7069 50.47C14.5467 51.7521 11.5009 54.3844 9.38006 58.1311C8.14944 60.3067 7.42037 62.6434 7.2327 65.181H32.5975C30.8769 62.5188 29.0833 60.0011 27.567 57.3256C26.0391 54.6302 24.7869 51.7804 23.3736 48.9139V48.9156ZM37.407 65.1711H62.7868C62.7137 64.6214 62.6755 64.1132 62.5742 63.6183C61.4399 58.0265 58.5336 53.7102 53.2872 51.2606C51.2611 50.3139 49.0539 49.7559 46.9282 49.0235C46.7704 48.9687 46.6043 48.9421 46.6159 48.9455C45.2126 51.792 43.9687 54.6236 42.4508 57.3007C40.9312 59.9779 39.1359 62.5006 37.407 65.1727V65.1711ZM46.8551 19.8174C46.8783 19.7709 46.9116 19.7327 46.9149 19.6912C47.3882 15.1042 44.4902 10.4225 40.1921 8.70693C38.1145 7.87821 35.9622 7.87987 33.7999 7.93966C29.5616 8.05757 26.3945 9.99567 24.3269 13.6925C23.6958 14.8218 23.2873 16.0408 23.1909 17.3578C23.2806 17.3578 23.3105 17.3678 23.3221 17.3578C23.4185 17.2681 23.5148 17.1768 23.6061 17.0805C25.7385 14.8052 28.3725 13.5862 31.4615 13.2674C32.3899 13.171 33.1024 13.4168 33.7882 14.0662C37.4535 17.5372 41.8695 19.3325 46.8551 19.8174ZM52.1131 18.5104C51.7593 10.7414 44.9917 2.68833 35.0654 2.64515C25.1672 2.60364 18.2718 10.557 17.8815 18.5403H20.3926C20.4175 18.2563 20.4324 18.0404 20.454 17.8245C21.032 12.1895 23.9333 8.27347 29.1747 6.12943C31.7206 5.08813 34.416 5.17117 37.0832 5.3306C42.7547 5.66774 47.6174 9.67017 49.0706 15.1523C49.3612 16.2468 49.4891 17.3861 49.695 18.5104H52.1131ZM34.9242 51.6442C34.8246 51.704 34.7598 51.7272 34.7166 51.7721C33.2884 53.2767 31.8717 54.793 30.4269 56.2827C30.113 56.6065 30.284 56.8125 30.4568 57.0765C31.885 59.2521 33.3083 61.4294 34.7365 63.605C34.8129 63.7229 34.9192 63.8209 35.0089 63.9238C36.3691 61.8828 37.7143 59.8915 39.0296 57.882C39.8782 56.5866 39.86 56.5733 38.7539 55.4689C37.4768 54.1935 36.1997 52.9197 34.9225 51.6459L34.9242 51.6442ZM41.2268 54.0274C41.2268 54.0274 41.2683 54.0124 41.2833 53.9759C42.2116 51.8368 43.1383 49.6978 44.06 47.5537C44.1082 47.4408 44.1564 47.2747 44.1099 47.1801C43.5502 46.0258 42.9706 44.8816 42.3661 43.6725C40.4346 45.7153 38.5812 47.6783 36.7809 49.5832C38.2972 51.1011 39.7603 52.5626 41.2251 54.0274H41.2268ZM28.703 54.2615C30.2392 52.6357 31.6093 51.1858 32.8516 49.8722C30.955 47.9772 29.1248 46.1487 27.3063 44.3319C26.9011 45.1407 26.4394 46.0425 25.9993 46.9542C25.9212 47.1153 25.8631 47.3544 25.9245 47.5056C26.8147 49.7077 27.7265 51.9 28.703 54.2615ZM21.0585 29.5412C20.836 26.7262 20.6184 23.9892 20.4025 21.2423H17.7669C17.7669 23.5823 17.752 25.8725 17.7752 28.1627C17.7835 28.9765 18.2967 29.4897 19.0938 29.5345C19.7283 29.571 20.366 29.5412 21.0585 29.5412ZM49.6037 21.2124C49.3828 23.9992 49.1669 26.7361 48.9443 29.5461C49.5073 29.5461 50.0521 29.5511 50.5968 29.5461C51.751 29.5345 52.2343 29.0496 52.2376 27.8804C52.2426 25.831 52.2409 23.7816 52.2376 21.7323C52.2376 21.5645 52.2094 21.3968 52.1928 21.2124H49.602H49.6037ZM33.6105 37.4962C34.0739 37.4962 34.5406 37.5228 35.0023 37.4895C35.7729 37.4364 36.3192 36.8717 36.3176 36.1742C36.3176 35.475 35.7712 34.8954 34.9989 34.8639C34.1171 34.8257 33.2319 34.8257 32.35 34.8639C31.5778 34.8971 31.033 35.48 31.0347 36.1759C31.0347 36.8751 31.5811 37.4347 32.3533 37.4895C32.7702 37.5194 33.192 37.4945 33.6122 37.4945L33.6105 37.4962ZM34.9043 47.6999C35.5968 46.9658 36.3226 46.1986 37.1164 45.3566H32.5659C33.2684 46.0607 34.0689 46.8629 34.9026 47.6999H34.9043ZM20.4889 32.2249C20.2215 33.6632 20.5138 34.9735 21.947 34.7593C21.7959 33.9189 21.6431 33.0786 21.4887 32.2249H20.4872H20.4889Z" fill="#4B8125"/>
<path d="M57.3482 61.7571C57.1671 61.616 56.7005 61.4167 56.4962 61.0629C55.6758 59.6563 54.6743 58.4223 53.4354 57.3628C52.796 56.8147 52.7744 56.0458 53.2677 55.4828C53.7642 54.9165 54.5049 54.8633 55.1643 55.3881C56.6689 56.5839 57.873 58.037 58.7449 59.7526C59.2331 60.7142 58.6319 61.7538 57.3498 61.7555L57.3482 61.7571Z" fill="#4B8125"/>
<path d="M49.5785 55.1268C48.8827 55.1218 48.2665 54.4957 48.2715 53.8031C48.2765 53.1073 48.9026 52.4911 49.5951 52.4961C50.2893 52.5011 50.9071 53.1272 50.9022 53.8197C50.8972 54.5156 50.2711 55.1317 49.5785 55.1268Z" fill="#4B8125"/>
</svg>

<svg width="69" height="68" viewBox="0 0 69 68" fill="none" xmlns="http://www.w3.org/2000/svg"><path d="M5.43 67.868c-.765-.432-.984-1.091-.92-1.945.582-7.709 4.043-13.595 11.075-17.05 2.198-1.082 4.635-1.693 6.98-2.465.638-.21 1.04-.518 1.319-1.138.56-1.244 1.207-2.451 1.733-3.502-.902-1.4-1.722-2.7-2.58-3.974-.112-.167-.416-.241-.645-.284-.752-.142-1.568-.113-2.255-.397-1.53-.63-2.269-1.897-2.362-3.535-.03-.528-.005-1.057-.005-1.59-1.976-.863-2.723-2.394-2.669-4.466.082-3.157-.071-6.328.151-9.473.353-4.954 2.452-9.18 6.067-12.584C25.73 1.312 31.015-.487 37.037.112c5.49.547 9.996 3.056 13.465 7.343 3.034 3.748 4.411 8.09 4.39 12.897-.012 2.475 0 4.95-.002 7.424-.002 2.783-1.626 4.417-4.393 4.422h-2.02c-.376 3.58-1.645 6.763-4.193 9.364.726 1.456 1.422 2.883 2.158 4.288.1.194.393.329.626.408 1.9.65 3.816 1.248 5.706 1.92 5.559 1.978 9.199 5.91 11.376 11.293.834 2.063 1.22 4.23 1.344 6.452.046.854-.16 1.513-.925 1.945H5.43zM46.868 22.55c-.364-.063-.641-.11-.917-.16-1.106-.2-2.227-.346-3.318-.612-3.94-.953-7.407-2.808-10.421-5.522-.19-.17-.502-.32-.741-.299-1.707.151-3.247.76-4.64 1.767-1.41 1.022-2.334 2.461-3.347 3.822-.19.254-.312.646-.285.958.255 2.903.523 5.804.845 8.7.136 1.218.413 2.419.63 3.646 1.217 0 2.32-.013 3.422.008.354.007.532-.094.7-.428.733-1.448 1.95-2.18 3.567-2.226a44.11 44.11 0 012.65 0c2.254.075 3.961 1.806 3.958 3.984-.003 2.173-1.727 3.895-3.981 3.958-.795.023-1.591.003-2.386.007-1.751.006-3.055-.726-3.859-2.309-.07-.136-.222-.32-.343-.325-.797-.029-1.598-.015-2.49-.015 1.226 1.996 2.747 3.48 4.762 4.37 6.31 2.798 12.879-.808 14.62-7.3.59-2.204.798-4.515 1.095-6.789.226-1.724.318-3.464.474-5.24l.005.005zM23.374 48.916c-1.488.498-3.068 1.06-4.667 1.554-4.16 1.282-7.206 3.914-9.327 7.661a16.617 16.617 0 00-2.147 7.05h25.364c-1.72-2.662-3.514-5.18-5.03-7.855-1.528-2.696-2.78-5.546-4.193-8.412v.002zM37.407 65.17h25.38c-.073-.55-.111-1.058-.213-1.553-1.134-5.592-4.04-9.908-9.287-12.357-2.026-.947-4.233-1.505-6.359-2.238a1.857 1.857 0 00-.312-.078c-1.403 2.847-2.647 5.679-4.165 8.356-1.52 2.677-3.315 5.2-5.044 7.872v-.002zm9.448-45.354c.023-.046.057-.084.06-.126.473-4.587-2.425-9.268-6.723-10.984-2.078-.829-4.23-.827-6.392-.767-4.238.118-7.405 2.056-9.473 5.753-.631 1.129-1.04 2.348-1.136 3.665.09 0 .12.01.131 0a6.34 6.34 0 00.284-.277c2.132-2.276 4.766-3.495 7.855-3.814.929-.096 1.641.15 2.327.8 3.666 3.47 8.082 5.265 13.067 5.75zm5.258-1.307c-.354-7.769-7.121-15.822-17.048-15.865-9.898-.041-16.793 7.912-17.183 15.895h2.51c.026-.284.04-.5.062-.715.578-5.635 3.48-9.552 8.72-11.696 2.547-1.04 5.242-.958 7.91-.798 5.67.337 10.533 4.34 11.987 9.821.29 1.095.418 2.234.624 3.358h2.418zM34.924 51.644c-.1.06-.164.083-.207.128-1.429 1.505-2.845 3.021-4.29 4.51-.314.325-.143.53.03.795 1.428 2.175 2.851 4.352 4.28 6.528.076.118.182.216.272.319 1.36-2.041 2.705-4.032 4.02-6.042.85-1.295.831-1.309-.275-2.413-1.277-1.276-2.554-2.55-3.831-3.823l.001-.002zm6.303 2.383s.041-.015.056-.051c.929-2.14 1.855-4.278 2.777-6.422.048-.113.096-.28.05-.374-.56-1.154-1.14-2.298-1.744-3.508l-5.585 5.911c1.516 1.518 2.98 2.98 4.444 4.444h.002zm-12.524.234l4.149-4.389-5.546-5.54c-.405.809-.867 1.71-1.307 2.622-.078.161-.136.4-.075.552.89 2.202 1.803 4.394 2.779 6.755zm-7.645-24.72c-.222-2.815-.44-5.552-.655-8.299h-2.636c0 2.34-.015 4.63.008 6.92.009.815.522 1.328 1.319 1.373.634.036 1.272.006 1.964.006zm28.546-8.329l-.66 8.334c.563 0 1.108.005 1.653 0 1.154-.011 1.637-.496 1.64-1.666.006-2.049.004-4.098 0-6.148 0-.168-.028-.335-.044-.52h-2.591.002zM33.61 37.496c.463 0 .93.027 1.391-.007.77-.053 1.317-.617 1.316-1.315 0-.699-.547-1.279-1.32-1.31a30.628 30.628 0 00-2.648 0c-.772.033-1.317.616-1.315 1.312 0 .7.546 1.259 1.318 1.313.417.03.839.006 1.26.006l-.002.001zM34.904 47.7c.693-.734 1.419-1.501 2.212-2.343h-4.55l2.337 2.343h.001zM20.49 32.225c-.268 1.438.025 2.748 1.458 2.534l-.458-2.534h-1.002.002z" fill="#4B8125"/><path d="M57.348 61.757c-.18-.141-.648-.34-.852-.694a14.247 14.247 0 00-3.06-3.7c-.64-.548-.662-1.317-.168-1.88.496-.566 1.237-.62 1.896-.095a13.127 13.127 0 013.58 4.365c.49.961-.112 2-1.394 2.002l-.002.002zm-7.77-6.63c-.695-.005-1.312-.631-1.306-1.324.005-.696.63-1.312 1.323-1.307.694.005 1.312.631 1.307 1.324-.005.696-.63 1.312-1.324 1.307z" fill="#4B8125"/></svg>
